icons/modern/input-symbols.svg

<svg width="32" height="32" viewBox="0 0 32 32" fill="none" xmlns="http://www.w3.org/2000/svg">
<g filter="url(#filter0_ii_18590_2256)">
<rect x="1.93433" y="2.4375" width="27.875" height="27.875" rx="3.6" fill="url(#paint0_linear_18590_2256)"/>
<rect x="1.93433" y="2.4375" width="27.875" height="27.875" rx="3.6" fill="url(#paint1_radial_18590_2256)"/>
</g>
<g filter="url(#filter1_f_18590_2256)">
<path d="M28.1218 4.9375V27.8125" stroke="url(#paint2_linear_18590_2256)" stroke-width="1.5" stroke-linecap="round"/>
</g>
<g filter="url(#filter2_f_18590_2256)">
<path d="M5.39819 4.25H27.1794" stroke="url(#paint3_linear_18590_2256)" stroke-width="1.5" stroke-linecap="round"/>
</g>
<g filter="url(#filter3_f_18590_2256)">
<path d="M21.9407 10.6408C21.8981 10.6794 21.8961 10.7459 21.9368 10.7865L23.1113 11.961C23.1499 11.9997 23.2124 12.0001 23.2517 11.9621L24.538 10.7137C24.8352 10.4253 25.31 10.4324 25.5985 10.7296C25.887 11.0269 25.8799 11.5017 25.5826 11.7902L24.3146 13.0208C24.2745 13.0597 24.274 13.1238 24.3135 13.1633L25.4578 14.3076C25.7507 14.6005 25.7507 15.0753 25.4578 15.3682C25.1649 15.6611 24.6901 15.6611 24.3972 15.3682L23.3075 14.2786C23.2662 14.2373 23.1985 14.24 23.1601 14.284C22.622 14.8982 21.9435 15.4551 20.9119 15.4551C19.5198 15.4551 18.3181 14.3342 18.3181 12.9004C18.3181 12.0503 18.8156 11.3883 19.2756 10.9359C19.3633 10.8498 19.4544 10.7667 19.5468 10.6869C19.5926 10.6473 19.5942 10.5764 19.5493 10.5357C19.5486 10.5351 19.548 10.5345 19.5473 10.5339L19.5109 10.501C19.373 10.3759 19.2054 10.2224 19.0505 10.0469C18.7264 9.67939 18.4275 9.18007 18.4275 8.48633C18.4275 7.17897 19.4873 6.11914 20.7947 6.11914C22.102 6.11914 23.1619 7.17897 23.1619 8.48633C23.1619 9.3019 22.6743 9.91911 22.243 10.3536C22.1452 10.452 22.0432 10.548 21.9407 10.6408ZM20.7947 7.61914C20.3157 7.61914 19.9275 8.00739 19.9275 8.48633C19.9275 8.69884 20.0035 8.85967 20.1755 9.05469C20.2688 9.16041 20.3794 9.2637 20.5184 9.38965L20.5587 9.42618C20.613 9.47522 20.6722 9.52873 20.7328 9.5854C20.7707 9.62087 20.8295 9.62229 20.8683 9.58777C20.9793 9.48898 21.0829 9.39307 21.1784 9.2968C21.5479 8.92464 21.6619 8.67857 21.6619 8.48633C21.6619 8.00739 21.2736 7.61914 20.7947 7.61914ZM22.1038 13.2039C22.1373 13.1645 22.1348 13.1058 22.0982 13.0692L20.7308 11.7018C20.7189 11.6899 20.7009 11.6866 20.6853 11.6927V11.6927C20.6813 11.6943 20.6775 11.6964 20.6742 11.6991C20.5537 11.7962 20.4368 11.8978 20.3274 12.0055C19.9651 12.3617 19.8181 12.6567 19.8181 12.9004C19.8181 13.4643 20.3062 13.9551 20.9119 13.9551C21.3557 13.9551 21.638 13.7527 22.1038 13.2039Z" fill="#579FFF"/>
<path d="M7.54468 6.2207C7.26854 6.2207 7.04468 6.44456 7.04468 6.7207C7.04468 6.99685 7.26854 7.2207 7.54468 7.2207L15.0623 7.2207C15.3384 7.2207 15.5623 6.99685 15.5623 6.7207C15.5623 6.44456 15.3384 6.2207 15.0623 6.2207L7.54468 6.2207Z" fill="#579FFF"/>
<path d="M7.06909 9.21289C7.06909 8.66061 7.51681 8.21289 8.06909 8.21289H14.5378C15.0901 8.21289 15.5378 8.66061 15.5378 9.21289C15.5378 9.76518 15.0901 10.2129 14.5378 10.2129H12.4035C12.3482 10.2129 12.3035 10.2577 12.3035 10.3129V14.3066C12.3035 14.8589 11.8558 15.3066 11.3035 15.3066C10.7512 15.3066 10.3035 14.8589 10.3035 14.3066V10.3129C10.3035 10.2577 10.2587 10.2129 10.2035 10.2129H8.06909C7.51681 10.2129 7.06909 9.76518 7.06909 9.21289Z" fill="#579FFF"/>
<path d="M10.9001 18.1973C8.98549 18.1973 7.43335 19.7494 7.43335 21.6641C7.43335 23.5787 8.98549 25.1309 10.9001 25.1309C11.3144 25.1309 11.6501 25.4666 11.6501 25.8809C11.6501 26.2951 11.3144 26.6309 10.9001 26.6309C8.15706 26.6309 5.93335 24.4071 5.93335 21.6641C5.93335 18.921 8.15706 16.6973 10.9001 16.6973C13.6432 16.6973 15.8669 18.921 15.8669 21.6641C15.8669 22.3945 15.7088 23.09 15.4242 23.7165C15.4122 23.7429 15.3988 23.7683 15.3843 23.7926C15.2646 24.0478 15.0054 24.2246 14.7048 24.2246H12.4636C12.2589 24.2246 12.0733 24.1426 11.938 24.0096C11.9045 23.9766 11.854 23.9656 11.8114 23.9856C11.4955 24.1339 11.1428 24.2167 10.7707 24.2167C9.41616 24.2167 8.31812 23.1187 8.31812 21.7642C8.31812 20.4097 9.41616 19.3116 10.7707 19.3116C11.1561 19.3116 11.5207 19.4005 11.8452 19.5589C11.8858 19.5788 11.9345 19.5701 11.9685 19.5402C12.1006 19.424 12.2739 19.3535 12.4636 19.3535C12.8778 19.3535 13.2136 19.6893 13.2136 20.1035V21.5458C13.22 21.6178 13.2232 21.6906 13.2232 21.7642C13.2232 21.8378 13.22 21.9106 13.2136 21.9826V22.6246C13.2136 22.6798 13.2584 22.7246 13.3136 22.7246H14.129C14.1725 22.7246 14.2111 22.6966 14.2235 22.6549C14.3167 22.3415 14.3669 22.0091 14.3669 21.6641C14.3669 19.7494 12.8148 18.1973 10.9001 18.1973ZM10.7707 20.8116C10.2446 20.8116 9.81812 21.2381 9.81812 21.7642C9.81812 22.2903 10.2446 22.7167 10.7707 22.7167C11.2482 22.7167 11.6437 22.3653 11.7126 21.9069C11.7133 21.9023 11.7136 21.8975 11.7136 21.8928V21.6356C11.7136 21.6309 11.7133 21.6261 11.7126 21.6215C11.6437 21.1631 11.2482 20.8116 10.7707 20.8116Z" fill="#579FFF"/>
<path d="M24.2099 17.3319C24.6878 17.6087 24.8509 18.2205 24.5741 18.6985L20.4881 25.7531C20.2113 26.2311 19.5995 26.3941 19.1216 26.1173C18.6437 25.8405 18.4807 25.2287 18.7575 24.7508L22.8434 17.6961C23.1202 17.2182 23.732 17.0551 24.2099 17.3319Z" fill="#579FFF"/>
<path d="M18.2797 18.7306C18.2797 17.9022 18.9512 17.2306 19.7797 17.2306C20.6081 17.2306 21.2797 17.9022 21.2797 18.7306C21.2797 19.559 20.6081 20.2306 19.7797 20.2306C18.9512 20.2306 18.2797 19.559 18.2797 18.7306ZM19.7797 18.2306C19.5035 18.2306 19.2797 18.4544 19.2797 18.7306C19.2797 19.0067 19.5035 19.2306 19.7797 19.2306C20.0558 19.2306 20.2797 19.0067 20.2797 18.7306C20.2797 18.4544 20.0558 18.2306 19.7797 18.2306Z" fill="#579FFF"/>
<path d="M23.8187 23.2228C22.9903 23.2228 22.3187 23.8944 22.3187 24.7228C22.3187 25.5512 22.9903 26.2228 23.8187 26.2228C24.6472 26.2228 25.3187 25.5512 25.3187 24.7228C25.3187 23.8944 24.6472 23.2228 23.8187 23.2228ZM23.3187 24.7228C23.3187 24.4466 23.5426 24.2228 23.8187 24.2228C24.0949 24.2228 24.3187 24.4466 24.3187 24.7228C24.3187 24.9989 24.0949 25.2228 23.8187 25.2228C23.5426 25.2228 23.3187 24.9989 23.3187 24.7228Z" fill="#579FFF"/>
</g>
<g filter="url(#filter4_ii_18590_2256)">
<path d="M21.9407 10.6408C21.8981 10.6794 21.8961 10.7459 21.9368 10.7865L23.1113 11.961C23.1499 11.9997 23.2124 12.0001 23.2517 11.9621L24.538 10.7137C24.8352 10.4253 25.31 10.4324 25.5985 10.7296C25.887 11.0269 25.8799 11.5017 25.5826 11.7902L24.3146 13.0208C24.2745 13.0597 24.274 13.1238 24.3135 13.1633L25.4578 14.3076C25.7507 14.6005 25.7507 15.0753 25.4578 15.3682C25.1649 15.6611 24.6901 15.6611 24.3972 15.3682L23.3075 14.2786C23.2662 14.2373 23.1985 14.24 23.1601 14.284C22.622 14.8982 21.9435 15.4551 20.9119 15.4551C19.5198 15.4551 18.3181 14.3342 18.3181 12.9004C18.3181 12.0503 18.8156 11.3883 19.2756 10.9359C19.3633 10.8498 19.4544 10.7667 19.5468 10.6869C19.5926 10.6473 19.5942 10.5764 19.5493 10.5357C19.5486 10.5351 19.548 10.5345 19.5473 10.5339L19.5109 10.501C19.373 10.3759 19.2054 10.2224 19.0505 10.0469C18.7264 9.67939 18.4275 9.18007 18.4275 8.48633C18.4275 7.17897 19.4873 6.11914 20.7947 6.11914C22.102 6.11914 23.1619 7.17897 23.1619 8.48633C23.1619 9.3019 22.6743 9.91911 22.243 10.3536C22.1452 10.452 22.0432 10.548 21.9407 10.6408ZM20.7947 7.61914C20.3157 7.61914 19.9275 8.00739 19.9275 8.48633C19.9275 8.69884 20.0035 8.85967 20.1755 9.05469C20.2688 9.16041 20.3794 9.2637 20.5184 9.38965L20.5587 9.42618C20.613 9.47522 20.6722 9.52873 20.7328 9.5854C20.7707 9.62087 20.8295 9.62229 20.8683 9.58777C20.9793 9.48898 21.0829 9.39307 21.1784 9.2968C21.5479 8.92464 21.6619 8.67857 21.6619 8.48633C21.6619 8.00739 21.2736 7.61914 20.7947 7.61914ZM22.1038 13.2039C22.1373 13.1645 22.1348 13.1058 22.0982 13.0692L20.7308 11.7018C20.7189 11.6899 20.7009 11.6866 20.6853 11.6927V11.6927C20.6813 11.6943 20.6775 11.6964 20.6742 11.6991C20.5537 11.7962 20.4368 11.8978 20.3274 12.0055C19.9651 12.3617 19.8181 12.6567 19.8181 12.9004C19.8181 13.4643 20.3062 13.9551 20.9119 13.9551C21.3557 13.9551 21.638 13.7527 22.1038 13.2039Z" fill="#FCF2FF"/>
<path d="M7.54468 6.2207C7.26854 6.2207 7.04468 6.44456 7.04468 6.7207C7.04468 6.99685 7.26854 7.2207 7.54468 7.2207L15.0623 7.2207C15.3384 7.2207 15.5623 6.99685 15.5623 6.7207C15.5623 6.44456 15.3384 6.2207 15.0623 6.2207L7.54468 6.2207Z" fill="#FCF2FF"/>
<path d="M7.06909 9.21289C7.06909 8.66061 7.51681 8.21289 8.06909 8.21289H14.5378C15.0901 8.21289 15.5378 8.66061 15.5378 9.21289C15.5378 9.76518 15.0901 10.2129 14.5378 10.2129H12.4035C12.3482 10.2129 12.3035 10.2577 12.3035 10.3129V14.3066C12.3035 14.8589 11.8558 15.3066 11.3035 15.3066C10.7512 15.3066 10.3035 14.8589 10.3035 14.3066V10.3129C10.3035 10.2577 10.2587 10.2129 10.2035 10.2129H8.06909C7.51681 10.2129 7.06909 9.76518 7.06909 9.21289Z" fill="#FCF2FF"/>
<path d="M10.9001 18.1973C8.98549 18.1973 7.43335 19.7494 7.43335 21.6641C7.43335 23.5787 8.98549 25.1309 10.9001 25.1309C11.3144 25.1309 11.6501 25.4666 11.6501 25.8809C11.6501 26.2951 11.3144 26.6309 10.9001 26.6309C8.15706 26.6309 5.93335 24.4071 5.93335 21.6641C5.93335 18.921 8.15706 16.6973 10.9001 16.6973C13.6432 16.6973 15.8669 18.921 15.8669 21.6641C15.8669 22.3945 15.7088 23.09 15.4242 23.7165C15.4122 23.7429 15.3988 23.7683 15.3843 23.7926C15.2646 24.0478 15.0054 24.2246 14.7048 24.2246H12.4636C12.2589 24.2246 12.0733 24.1426 11.938 24.0096C11.9045 23.9766 11.854 23.9656 11.8114 23.9856C11.4955 24.1339 11.1428 24.2167 10.7707 24.2167C9.41616 24.2167 8.31812 23.1187 8.31812 21.7642C8.31812 20.4097 9.41616 19.3116 10.7707 19.3116C11.1561 19.3116 11.5207 19.4005 11.8452 19.5589C11.8858 19.5788 11.9345 19.5701 11.9685 19.5402C12.1006 19.424 12.2739 19.3535 12.4636 19.3535C12.8778 19.3535 13.2136 19.6893 13.2136 20.1035V21.5458C13.22 21.6178 13.2232 21.6906 13.2232 21.7642C13.2232 21.8378 13.22 21.9106 13.2136 21.9826V22.6246C13.2136 22.6798 13.2584 22.7246 13.3136 22.7246H14.129C14.1725 22.7246 14.2111 22.6966 14.2235 22.6549C14.3167 22.3415 14.3669 22.0091 14.3669 21.6641C14.3669 19.7494 12.8148 18.1973 10.9001 18.1973ZM10.7707 20.8116C10.2446 20.8116 9.81812 21.2381 9.81812 21.7642C9.81812 22.2903 10.2446 22.7167 10.7707 22.7167C11.2482 22.7167 11.6437 22.3653 11.7126 21.9069C11.7133 21.9023 11.7136 21.8975 11.7136 21.8928V21.6356C11.7136 21.6309 11.7133 21.6261 11.7126 21.6215C11.6437 21.1631 11.2482 20.8116 10.7707 20.8116Z" fill="#FCF2FF"/>
<path d="M24.2099 17.3319C24.6878 17.6087 24.8509 18.2205 24.5741 18.6985L20.4881 25.7531C20.2113 26.2311 19.5995 26.3941 19.1216 26.1173C18.6437 25.8405 18.4807 25.2287 18.7575 24.7508L22.8434 17.6961C23.1202 17.2182 23.732 17.0551 24.2099 17.3319Z" fill="#FCF2FF"/>
<path d="M18.2797 18.7306C18.2797 17.9022 18.9512 17.2306 19.7797 17.2306C20.6081 17.2306 21.2797 17.9022 21.2797 18.7306C21.2797 19.559 20.6081 20.2306 19.7797 20.2306C18.9512 20.2306 18.2797 19.559 18.2797 18.7306ZM19.7797 18.2306C19.5035 18.2306 19.2797 18.4544 19.2797 18.7306C19.2797 19.0067 19.5035 19.2306 19.7797 19.2306C20.0558 19.2306 20.2797 19.0067 20.2797 18.7306C20.2797 18.4544 20.0558 18.2306 19.7797 18.2306Z" fill="#FCF2FF"/>
<path d="M23.8187 23.2228C22.9903 23.2228 22.3187 23.8944 22.3187 24.7228C22.3187 25.5512 22.9903 26.2228 23.8187 26.2228C24.6472 26.2228 25.3187 25.5512 25.3187 24.7228C25.3187 23.8944 24.6472 23.2228 23.8187 23.2228ZM23.3187 24.7228C23.3187 24.4466 23.5426 24.2228 23.8187 24.2228C24.0949 24.2228 24.3187 24.4466 24.3187 24.7228C24.3187 24.9989 24.0949 25.2228 23.8187 25.2228C23.5426 25.2228 23.3187 24.9989 23.3187 24.7228Z" fill="#FCF2FF"/>
</g>
<defs>
<filter id="filter0_ii_18590_2256" x="1.93433" y="1.4375" width="28.875" height="28.875" filterUnits="userSpaceOnUse" color-interpolation-filters="sRGB">
<feFlood flood-opacity="0" result="BackgroundImageFix"/>
<feBlend mode="normal" in="SourceGraphic" in2="BackgroundImageFix" result="shape"/>
<feColorMatrix in="SourceAlpha" type="matrix" values="0 0 0 0 0 0 0 0 0 0 0 0 0 0 0 0 0 0 127 0" result="hardAlpha"/>
<feOffset dx="1" dy="-1"/>
<feGaussianBlur stdDeviation="1.5"/>
<feComposite in2="hardAlpha" operator="arithmetic" k2="-1" k3="1"/>
<feColorMatrix type="matrix" values="0 0 0 0 0.188235 0 0 0 0 0.470588 0 0 0 0 0.843137 0 0 0 1 0"/>
<feBlend mode="normal" in2="shape" result="effect1_innerShadow_18590_2256"/>
<feColorMatrix in="SourceAlpha" type="matrix" values="0 0 0 0 0 0 0 0 0 0 0 0 0 0 0 0 0 0 127 0" result="hardAlpha"/>
<feOffset dy="-1"/>
<feGaussianBlur stdDeviation="1.5"/>
<feComposite in2="hardAlpha" operator="arithmetic" k2="-1" k3="1"/>
<feColorMatrix type="matrix" values="0 0 0 0 0.27451 0 0 0 0 0.34902 0 0 0 0 0.8 0 0 0 1 0"/>
<feBlend mode="normal" in2="effect1_innerShadow_18590_2256" result="effect2_innerShadow_18590_2256"/>
</filter>
<filter id="filter1_f_18590_2256" x="25.3718" y="2.1875" width="5.5" height="28.375" filterUnits="userSpaceOnUse" color-interpolation-filters="sRGB">
<feFlood flood-opacity="0" result="BackgroundImageFix"/>
<feBlend mode="normal" in="SourceGraphic" in2="BackgroundImageFix" result="shape"/>
<feGaussianBlur stdDeviation="1" result="effect1_foregroundBlur_18590_2256"/>
</filter>
<filter id="filter2_f_18590_2256" x="2.64819" y="1.5" width="27.2812" height="5.5" filterUnits="userSpaceOnUse" color-interpolation-filters="sRGB">
<feFlood flood-opacity="0" result="BackgroundImageFix"/>
<feBlend mode="normal" in="SourceGraphic" in2="BackgroundImageFix" result="shape"/>
<feGaussianBlur stdDeviation="1" result="effect1_foregroundBlur_18590_2256"/>
</filter>
<filter id="filter3_f_18590_2256" x="4.93335" y="5.11914" width="21.877" height="22.5117" filterUnits="userSpaceOnUse" color-interpolation-filters="sRGB">
<feFlood flood-opacity="0" result="BackgroundImageFix"/>
<feBlend mode="normal" in="SourceGraphic" in2="BackgroundImageFix" result="shape"/>
<feGaussianBlur stdDeviation="0.5" result="effect1_foregroundBlur_18590_2256"/>
</filter>
<filter id="filter4_ii_18590_2256" x="4.93335" y="5.71914" width="21.277" height="21.9117" filterUnits="userSpaceOnUse" color-interpolation-filters="sRGB">
<feFlood flood-opacity="0" result="BackgroundImageFix"/>
<feBlend mode="normal" in="SourceGraphic" in2="BackgroundImageFix" result="shape"/>
<feColorMatrix in="SourceAlpha" type="matrix" values="0 0 0 0 0 0 0 0 0 0 0 0 0 0 0 0 0 0 127 0" result="hardAlpha"/>
<feOffset dx="-1" dy="1"/>
<feGaussianBlur stdDeviation="1"/>
<feComposite in2="hardAlpha" operator="arithmetic" k2="-1" k3="1"/>
<feColorMatrix type="matrix" values="0 0 0 0 0.866667 0 0 0 0 0.819608 0 0 0 0 0.941176 0 0 0 1 0"/>
<feBlend mode="normal" in2="shape" result="effect1_innerShadow_18590_2256"/>
<feColorMatrix in="SourceAlpha" type="matrix" values="0 0 0 0 0 0 0 0 0 0 0 0 0 0 0 0 0 0 127 0" result="hardAlpha"/>
<feOffset dx="0.4" dy="-0.4"/>
<feGaussianBlur stdDeviation="0.5"/>
<feComposite in2="hardAlpha" operator="arithmetic" k2="-1" k3="1"/>
<feColorMatrix type="matrix" values="0 0 0 0 1 0 0 0 0 0.988235 0 0 0 0 1 0 0 0 1 0"/>
<feBlend mode="normal" in2="effect1_innerShadow_18590_2256" result="effect2_innerShadow_18590_2256"/>
</filter>
<linearGradient id="paint0_linear_18590_2256" x1="15.8718" y1="6.01201" x2="15.8718" y2="39.2647" gradientUnits="userSpaceOnUse">
<stop stop-color="#5CB7FF"/>
<stop offset="1" stop-color="#4878DD"/>
</linearGradient>
<radialGradient id="paint1_radial_18590_2256" cx="0" cy="0" r="1" gradientUnits="userSpaceOnUse" gradientTransform="translate(27.5906 4.53125) rotate(136.771) scale(2.14444 2.50466)">
<stop stop-color="#7BD7FF"/>
<stop offset="1" stop-color="#7BD7FF" stop-opacity="0"/>
</radialGradient>
<linearGradient id="paint2_linear_18590_2256" x1="28.6218" y1="4.9375" x2="28.6218" y2="27.8125" gradientUnits="userSpaceOnUse">
<stop stop-color="#7FD9FF"/>
<stop offset="1" stop-color="#639DF4"/>
</linearGradient>
<linearGradient id="paint3_linear_18590_2256" x1="28.3357" y1="4.50002" x2="2.80444" y2="4.50002" gradientUnits="userSpaceOnUse">
<stop stop-color="#7DD8FF"/>
<stop offset="1" stop-color="#5DB6FF"/>
</linearGradient>
</defs>
</svg>

<svg width="32" height="32" fill="none" xmlns="http://www.w3.org/2000/svg"><g filter="url(#a)"><rect x="1.934" y="2.438" width="27.875" height="27.875" rx="3.6" fill="url(#b)"/><rect x="1.934" y="2.438" width="27.875" height="27.875" rx="3.6" fill="url(#c)"/></g><g filter="url(#d)"><path d="M28.122 4.938v22.875" stroke="url(#e)" stroke-width="1.5" stroke-linecap="round"/></g><g filter="url(#f)"><path d="M5.398 4.25H27.18" stroke="url(#g)" stroke-width="1.5" stroke-linecap="round"/></g><g filter="url(#h)" fill="#579FFF"><path d="M21.94 10.64a.1.1 0 0 0-.003.146l1.174 1.175a.1.1 0 0 0 .14.001l1.287-1.248a.75.75 0 0 1 1.045 1.076l-1.268 1.23a.1.1 0 0 0-.002.143l1.145 1.145a.75.75 0 1 1-1.06 1.06l-1.09-1.09a.101.101 0 0 0-.148.006c-.538.614-1.216 1.171-2.248 1.171-1.392 0-2.594-1.12-2.594-2.555 0-.85.498-1.512.958-1.964a5.78 5.78 0 0 1 .27-.25.101.101 0 0 0 .003-.15l-.002-.002-.036-.033a5.808 5.808 0 0 1-.46-.454c-.325-.368-.623-.867-.623-1.56a2.367 2.367 0 1 1 4.734 0c0 .815-.488 1.432-.919 1.867-.098.098-.2.194-.302.287Zm-1.145-3.02a.867.867 0 0 0-.868.866c0 .213.076.374.248.569.094.105.204.209.343.335l.04.036.175.16a.1.1 0 0 0 .135.002c.111-.099.215-.195.31-.291.37-.372.484-.618.484-.81a.867.867 0 0 0-.867-.868Zm1.309 5.584a.1.1 0 0 0-.006-.135l-1.367-1.367a.043.043 0 0 0-.046-.01 4.67 4.67 0 0 0-.358.313c-.362.357-.509.652-.509.895 0 .564.488 1.055 1.094 1.055.444 0 .726-.202 1.192-.751ZM7.545 6.22a.5.5 0 0 0 0 1h7.517a.5.5 0 0 0 0-1H7.545ZM7.07 9.213a1 1 0 0 1 1-1h6.468a1 1 0 1 1 0 2h-2.135a.1.1 0 0 0-.1.1v3.994a1 1 0 1 1-2 0v-3.994a.1.1 0 0 0-.1-.1H8.07a1 1 0 0 1-1-1ZM10.9 18.197a3.467 3.467 0 0 0 0 6.934.75.75 0 1 1 0 1.5 4.967 4.967 0 1 1 4.524-2.915.772.772 0 0 1-.04.077.75.75 0 0 1-.68.432h-2.24a.747.747 0 0 1-.526-.215.113.113 0 0 0-.127-.024 2.453 2.453 0 1 1 .034-4.427c.04.02.09.011.123-.019a.75.75 0 0 1 1.245.563v1.443a2.466 2.466 0 0 1 0 .437v.642a.1.1 0 0 0 .1.1h.816a.098.098 0 0 0 .095-.07 3.47 3.47 0 0 0-3.324-4.458Zm-.13 2.615a.953.953 0 1 0 .944 1.08v-.256l-.001-.014a.953.953 0 0 0-.942-.81ZM24.21 17.332a1 1 0 0 1 .364 1.366l-4.086 7.055a1 1 0 1 1-1.73-1.002l4.085-7.055a1 1 0 0 1 1.367-.364ZM18.28 18.73a1.5 1.5 0 1 1 3 0 1.5 1.5 0 0 1-3 0Zm1.5-.5a.5.5 0 1 0 0 1 .5.5 0 0 0 0-1ZM23.819 23.223a1.5 1.5 0 1 0 0 3 1.5 1.5 0 0 0 0-3Zm-.5 1.5a.5.5 0 1 1 1 0 .5.5 0 0 1-1 0Z"/></g><g filter="url(#i)" fill="#FCF2FF"><path d="M21.94 10.64a.1.1 0 0 0-.003.146l1.174 1.175a.1.1 0 0 0 .14.001l1.287-1.248a.75.75 0 0 1 1.045 1.076l-1.268 1.23a.1.1 0 0 0-.002.143l1.145 1.145a.75.75 0 1 1-1.06 1.06l-1.09-1.09a.101.101 0 0 0-.148.006c-.538.614-1.216 1.171-2.248 1.171-1.392 0-2.594-1.12-2.594-2.555 0-.85.498-1.512.958-1.964a5.78 5.78 0 0 1 .27-.25.101.101 0 0 0 .003-.15l-.002-.002-.036-.033a5.808 5.808 0 0 1-.46-.454c-.325-.368-.623-.867-.623-1.56a2.367 2.367 0 1 1 4.734 0c0 .815-.488 1.432-.919 1.867-.098.098-.2.194-.302.287Zm-1.145-3.02a.867.867 0 0 0-.868.866c0 .213.076.374.248.569.094.105.204.209.343.335l.04.036.175.16a.1.1 0 0 0 .135.002c.111-.099.215-.195.31-.291.37-.372.484-.618.484-.81a.867.867 0 0 0-.867-.868Zm1.309 5.584a.1.1 0 0 0-.006-.135l-1.367-1.367a.043.043 0 0 0-.046-.01 4.67 4.67 0 0 0-.358.313c-.362.357-.509.652-.509.895 0 .564.488 1.055 1.094 1.055.444 0 .726-.202 1.192-.751ZM7.545 6.22a.5.5 0 0 0 0 1h7.517a.5.5 0 0 0 0-1H7.545ZM7.07 9.213a1 1 0 0 1 1-1h6.468a1 1 0 1 1 0 2h-2.135a.1.1 0 0 0-.1.1v3.994a1 1 0 1 1-2 0v-3.994a.1.1 0 0 0-.1-.1H8.07a1 1 0 0 1-1-1ZM10.9 18.197a3.467 3.467 0 0 0 0 6.934.75.75 0 1 1 0 1.5 4.967 4.967 0 1 1 4.524-2.915.772.772 0 0 1-.04.077.75.75 0 0 1-.68.432h-2.24a.747.747 0 0 1-.526-.215.113.113 0 0 0-.127-.024 2.453 2.453 0 1 1 .034-4.427c.04.02.09.011.123-.019a.75.75 0 0 1 1.245.563v1.443a2.466 2.466 0 0 1 0 .437v.642a.1.1 0 0 0 .1.1h.816a.098.098 0 0 0 .095-.07 3.47 3.47 0 0 0-3.324-4.458Zm-.13 2.615a.953.953 0 1 0 .944 1.08v-.256l-.001-.014a.953.953 0 0 0-.942-.81ZM24.21 17.332a1 1 0 0 1 .364 1.366l-4.086 7.055a1 1 0 1 1-1.73-1.002l4.085-7.055a1 1 0 0 1 1.367-.364ZM18.28 18.73a1.5 1.5 0 1 1 3 0 1.5 1.5 0 0 1-3 0Zm1.5-.5a.5.5 0 1 0 0 1 .5.5 0 0 0 0-1ZM23.819 23.223a1.5 1.5 0 1 0 0 3 1.5 1.5 0 0 0 0-3Zm-.5 1.5a.5.5 0 1 1 1 0 .5.5 0 0 1-1 0Z"/></g><defs><filter id="a" x="1.934" y="1.438" width="28.875" height="28.875" filterUnits="userSpaceOnUse" color-interpolation-filters="sRGB"><feFlood flood-opacity="0" result="BackgroundImageFix"/><feBlend in="SourceGraphic" in2="BackgroundImageFix" result="shape"/><feColorMatrix in="SourceAlpha" values="0 0 0 0 0 0 0 0 0 0 0 0 0 0 0 0 0 0 127 0" result="hardAlpha"/><feOffset dx="1" dy="-1"/><feGaussianBlur stdDeviation="1.5"/><feComposite in2="hardAlpha" operator="arithmetic" k2="-1" k3="1"/><feColorMatrix values="0 0 0 0 0.188235 0 0 0 0 0.470588 0 0 0 0 0.843137 0 0 0 1 0"/><feBlend in2="shape" result="effect1_innerShadow_18590_2256"/><feColorMatrix in="SourceAlpha" values="0 0 0 0 0 0 0 0 0 0 0 0 0 0 0 0 0 0 127 0" result="hardAlpha"/><feOffset dy="-1"/><feGaussianBlur stdDeviation="1.5"/><feComposite in2="hardAlpha" operator="arithmetic" k2="-1" k3="1"/><feColorMatrix values="0 0 0 0 0.27451 0 0 0 0 0.34902 0 0 0 0 0.8 0 0 0 1 0"/><feBlend in2="effect1_innerShadow_18590_2256" result="effect2_innerShadow_18590_2256"/></filter><filter id="d" x="25.372" y="2.188" width="5.5" height="28.375" filterUnits="userSpaceOnUse" color-interpolation-filters="sRGB"><feFlood flood-opacity="0" result="BackgroundImageFix"/><feBlend in="SourceGraphic" in2="BackgroundImageFix" result="shape"/><feGaussianBlur stdDeviation="1" result="effect1_foregroundBlur_18590_2256"/></filter><filter id="f" x="2.648" y="1.5" width="27.281" height="5.5" filterUnits="userSpaceOnUse" color-interpolation-filters="sRGB"><feFlood flood-opacity="0" result="BackgroundImageFix"/><feBlend in="SourceGraphic" in2="BackgroundImageFix" result="shape"/><feGaussianBlur stdDeviation="1" result="effect1_foregroundBlur_18590_2256"/></filter><filter id="h" x="4.933" y="5.119" width="21.877" height="22.512" filterUnits="userSpaceOnUse" color-interpolation-filters="sRGB"><feFlood flood-opacity="0" result="BackgroundImageFix"/><feBlend in="SourceGraphic" in2="BackgroundImageFix" result="shape"/><feGaussianBlur stdDeviation=".5" result="effect1_foregroundBlur_18590_2256"/></filter><filter id="i" x="4.933" y="5.719" width="21.277" height="21.912" filterUnits="userSpaceOnUse" color-interpolation-filters="sRGB"><feFlood flood-opacity="0" result="BackgroundImageFix"/><feBlend in="SourceGraphic" in2="BackgroundImageFix" result="shape"/><feColorMatrix in="SourceAlpha" values="0 0 0 0 0 0 0 0 0 0 0 0 0 0 0 0 0 0 127 0" result="hardAlpha"/><feOffset dx="-1" dy="1"/><feGaussianBlur stdDeviation="1"/><feComposite in2="hardAlpha" operator="arithmetic" k2="-1" k3="1"/><feColorMatrix values="0 0 0 0 0.866667 0 0 0 0 0.819608 0 0 0 0 0.941176 0 0 0 1 0"/><feBlend in2="shape" result="effect1_innerShadow_18590_2256"/><feColorMatrix in="SourceAlpha" values="0 0 0 0 0 0 0 0 0 0 0 0 0 0 0 0 0 0 127 0" result="hardAlpha"/><feOffset dx=".4" dy="-.4"/><feGaussianBlur stdDeviation=".5"/><feComposite in2="hardAlpha" operator="arithmetic" k2="-1" k3="1"/><feColorMatrix values="0 0 0 0 1 0 0 0 0 0.988235 0 0 0 0 1 0 0 0 1 0"/><feBlend in2="effect1_innerShadow_18590_2256" result="effect2_innerShadow_18590_2256"/></filter><linearGradient id="b" x1="15.872" y1="6.012" x2="15.872" y2="39.265" gradientUnits="userSpaceOnUse"><stop stop-color="#5CB7FF"/><stop offset="1" stop-color="#4878DD"/></linearGradient><linearGradient id="e" x1="28.622" y1="4.938" x2="28.622" y2="27.813" gradientUnits="userSpaceOnUse"><stop stop-color="#7FD9FF"/><stop offset="1" stop-color="#639DF4"/></linearGradient><linearGradient id="g" x1="28.336" y1="4.5" x2="2.804" y2="4.5" gradientUnits="userSpaceOnUse"><stop stop-color="#7DD8FF"/><stop offset="1" stop-color="#5DB6FF"/></linearGradient><radialGradient id="c" cx="0" cy="0" r="1" gradientUnits="userSpaceOnUse" gradientTransform="matrix(-1.56249 1.46876 -1.71548 -1.82495 27.59 4.531)"><stop stop-color="#7BD7FF"/><stop offset="1" stop-color="#7BD7FF" stop-opacity="0"/></radialGradient></defs></svg>
